X: 5620
T: Buttered Peas
R: polka
M: 2/4
K: Dmajor
|:FA AF|GB BG|FA AF|G/F/E/D/ ED/E/|
F/G/A A2|G/A/B B2|FA E>G|FD D2:|
|:D>F Ad|d/c/B/c/ dB|AF- FD|GE EF/E/|
D>F Ad|d/c/B/c/ dB|AF GE|FD D2:|

